src/images/std-icons/std-equation.svg

<svg xmlns="http://www.w3.org/2000/svg" width="512" height="512" viewBox="0 0 512 512">
  <title>equation</title>
  <path fill="#000" fill-rule="nonzero" d="M426.651093,106.673278 L206.213547,106.673278 C197.033035,106.669324 188.881894,112.54539 185.984,121.256533 L120.880213,316.52736 L105.567787,270.589867 C101.839879,259.417573 89.7608801,253.382706 78.5885867,257.110613 C67.4162933,260.838521 61.381426,272.91752 65.1093333,284.089813 L100.650667,390.75648 C103.551505,399.465334 111.700516,405.340161 120.879787,405.340161 C130.059057,405.340161 138.208068,399.465334 141.108907,390.75648 L221.589333,149.339947 L426.651947,149.339947 C438.434021,149.339947 447.98528,139.788688 447.98528,128.006613 C447.98528,116.224539 438.434021,106.673278 426.651947,106.673278 L426.651093,106.673278 Z"/>
  <path fill="#000" fill-rule="nonzero" d="M399.09504,226.93888 C390.74998,218.641936 377.270926,218.641936 368.925867,226.93888 L323.670613,272.19392 L278.41536,226.93888 C270.067812,218.705566 256.640383,218.75182 248.349755,227.042448 C240.059127,235.333076 240.012873,248.760505 248.246187,257.108053 L293.50144,302.363307 L248.246187,347.61856 C240.012873,355.966108 240.059127,369.393537 248.349755,377.684165 C256.640383,385.974793 270.067812,386.021047 278.41536,377.787733 L323.670613,332.53248 L368.925867,377.787733 C377.273415,386.021047 390.700844,385.974793 398.991472,377.684165 C407.2821,369.393537 407.328354,355.966108 399.09504,347.61856 L353.839787,302.363307 L399.09504,257.108053 C407.391984,248.762994 407.391984,235.28394 399.09504,226.93888 Z"/>
</svg>

<svg xmlns="http://www.w3.org/2000/svg" viewBox="0 0 512 512">
  <title>
    equation
  </title>
  <path d="M426.65 106.67H206.21a21.31 21.31 0 0 0-20.23 14.59l-65.1 195.27-15.31-45.94a21.33 21.33 0 0 0-40.46 13.5l35.54 106.67a21.32 21.32 0 0 0 40.46 0l80.48-241.42h205.06a21.33 21.33 0 0 0 0-42.67z"/>
  <path d="M399.1 226.94a21.4 21.4 0 0 0-30.17 0l-45.26 45.25-45.25-45.25a21.33 21.33 0 0 0-30.17 30.17l45.25 45.25-45.25 45.26a21.33 21.33 0 0 0 30.17 30.17l45.25-45.26 45.26 45.26a21.33 21.33 0 0 0 30.17-30.17l-45.26-45.26 45.26-45.25a21.4 21.4 0 0 0 0-30.17z"/>
</svg>
